!!!OTL: SIEH AN MEIN SCHOENSTES KIND
!!!ARE: Europa, Mitteleuropa, Deutschland, Hessen, Frankfurt, Dreieichenhain
!!!SCT: E0831
!!!YEM: Copyright 1995, estate of Helmut Schaffrath.
**kern
*ICvox
*Ivox
*M3/4
*k[f#]
*G:
=1
{4dd
4b
4dd
=2
4dd
8cc
8b
4a}
=3
{4ee
4dd
4cc
=4
2cc
4b}
=5
{4dd
4b
4dd
=6
4dd
8cc
8b
4a}
=7
{4ee
4dd
4cc
=8
2cc
4b}
=9
{4a
4a
4b
=10
4.cc
8b
4a}
=11
{4b
4b
4cc
=12
2dd
4b}
=13
{4ee
4ee
4ee
=14
4.dd
8cc
4b}
=15
{4b
4.dd
8a
=16
2a
4g}
==
!!!AGN: Hochzeits -, Ehestands - Lied
!!!ONB: ESAC (Essen Associative Code) Database: ERK2
!!!AMT: simple triple
!!!AIN: vox
!!!EED: Helmut Schaffrath
!!!EEV: 1.0
*-
